X: 1
T: Oy Chanukah
M: 2/2
L: 1/8
Z: 2007 John Chambers <jc@trillian.mit.edu>
S: printed MS of unknown origin, labelled "8." and "Chanukah"
K: Gm
V: 1 name="S"
z2 | z2A2- AAGA | B2B2- BcA2 | z2A2- AAAA | ddAA BcA2 |
  "Melody"FGAG F2F2 | G2FE F4 | FGAG F2F2 |[M:3/2] G2FE D6 D2 |
 [M:2/2] A2 A4 D2 | A2 A4 D2 | A2AA B2AG | A2AG FEDE |
  z2F2 G2G2 | z2F2 G2G2 | z2A2 G2G2 | z2F2- FEFG |
  "Melody"A2AA B2AG | A2AA B2AG | F2FF G2FE | D6 |]
V: 2 name="A"
z2 | z2f2- ffef | gfed e2f2 | z2f2- ffff | gfed fefe |
  defe d2d2 | e2d^c d4 | defe d2d2 |[M:3/2] fed^c d6 d2 |
 [M:2/2] f2 f4 d2 | f2 f4 d2 | f2ff f2e2 | f2z2 z4 |
  z2d2 d2^c2 | z2d2 fed^c | z2d2 e2d^c | z2d2- d^cde |
  f2ff egfe | f2fe d^cde | (fe)(ed) d(e/d/ ^c)A | A6 |]
V: 3 name="T"
"Melody"D2 | AAAA ddAA | A2GF G2 FF | AAAA ddAA | A2GF G2F2 |
  z4 Bcdc | B2B2 c2BA | B2z2 ABcB |[M:3/2] A2A2 d2AG FGE2 |
 [M:2/2] z2D2 A2A2 | z2D2 A2A2 | z2D2 G2G2- | G2FE DEFG |
  "Melody"A2AA B2AG | A2AA B2AG | F2FF G2FE | D2F2 A2d2 |
  z2D2 G2G2 | z2D2 G2FG | A2AA B2AG | G2FE D2 |]
